!!!COM: Bach, Johann Sebastian
!!!OPR: Joh. Seb. Bachs vierstimmige Choralgesänge
!!!XEN: Four-part Chorales
!!!OTL: 7. Ach, was soll ich Sünder machen
!!!SCT: BWV 259
!!!SCA: Thematisch-systematisches Verzeichnis der musikalischen Werke Johann Sebastian Bach: Bach-Werke-Verzeichnis (Schmieder)
!!!YOR: Bach Gesellschaft Edition xxxix
!!!ENC: Steven Rasmussen
!!!CDT: 1685/3//-1750/7/28/
!!!OCY: Deutschland
!!!YEC: Copyright (c) 1994, 2000 Center for Computer Assisted Research in the Humanities
!!!YEM: Rights to all derivative editions reserved
!!!YEN: United States of America
**kern	**silbe	**kern	**kern	**kern
*I:[SOPRANO]	*I:[SOPRANO]	*I:[ALTO]	*I:[TENORE]	*I:[BASSO]
*clefG2	*	*clefG2	*clefGv2	*clefF4
*k[f#]	*	*k[f#]	*k[f#]	*k[f#]
*G:	*	*G:	*G:	*G:
*M4/4	*	*M4/4	*M4/4	*M4/4
=1-	=1-	=1-	=1-	=1-
4e	Ach,	4B	4G	8EL
.	.	.	.	8F#J
4e	was	4B	4G	8GL
.	.	.	.	8F#J
4g	soll	4e	4B	8EL
.	.	.	.	8DJ
4g	ich	4e	4B	8CL
.	.	.	.	8BBJ
=2	=2	=2	=2	=2
4a	SÃ¼n-	4e	4c	8AAL
.	.	.	.	8GGJ
4a	-der	8aL	4d	8FF#L
.	.	8f#J	.	8DDJ
4b	ma-	4g	4d	4GG
4b;	-chen?	4g;	4d;	4G;
=3	=3	=3	=3	=3
4b	ach,	4g	4d	8GGL
.	.	.	.	8AAJ
4dd	was	4g	8dL	8BBL
.	.	.	8BJ	8EJ
4cc	soll	8gL	8cL	8AAL
.	.	8f#J	8dJ	8DJ
4b	ich	4g	4d	8GGL
.	.	.	.	8BBJ
=4	=4	=4	=4	=4
4.a	fan-	4g	8eL	8CL
.	.	.	8cJ	8AAJ
.	.	4f#	8AL	4D
8a	-gen	.	16dL	.
.	.	.	16cJJ	.
2g;	an,	2d;	2B;	2GG;
=5	=5	=5	=5	=5
4a	mein	4f#	4d	8F#L
.	.	.	.	8EJ
4a	Ge-	4e	4A	8DL
.	.	.	.	8CJ
4b	-wis-	8d#L	8AL	8BBL
.	.	8f#J	16GL	8D#J
.	.	.	16F#JJ	.
4g	-sen	8BL	8GL	8EL
.	.	16eL	8cJ	8CJ
.	.	16d#JJ	.	.
=6	=6	=6	=6	=6
4.f#	klagt	4e	8cL	8AAL
.	.	.	8AJ	8FF#J
.	.	4d#	8F#L	4BB
8f#	mich	.	16BL	.
.	.	.	16AJJ	.
2e;	an,	2B;	2G;	2EE;
=7	=7	=7	=7	=7
4ee	es	4g	4B	8EEL
.	.	.	.	8FF#J
4ee	be-	4g	4B	8GGL
.	.	.	.	8AAJ
4dd	-gin-	4f#	4B	8BBL
.	.	.	.	8C#J
4dd	-net	4f#	4B	8DL
.	.	.	.	8BBJ
=8	=8	=8	=8	=8
4cc#	auf-	4g	4.B	8EL
.	.	.	.	8C#J
4cc#	-zu-	4f#	.	4F#
.	.	.	8A#	.
4b	-wa-	4f#	4d	4BB
4b;	-chen;	4f#;	4d;	4BB;
=9	=9	=9	=9	=9
4dd	dies	4f#	8dL	8BL
.	.	.	8cJ	8AJ
4dd	ist	4g	4B	8GL
.	.	.	.	8F#J
4cc	mei-	8gL	8eL	8EL
.	.	8aJ	8dJ	8F#J
4b	-ne	8aL	8dL	8GL
.	.	8gJ	8eJ	8EJ
=10	=10	=10	=10	=10
4.a	Zu-	4g	8eL	8CL
.	.	.	8cJ	8AAJ
.	.	4f#	8AL	4D
8a	-ver-	.	16dL	.
.	.	.	16cJJ	.
2g;	-sicht,	2d;	2B;	2GG;
=11	=11	=11	=11	=11
4a	mei-	4e	4c#	4G
4a	-nen	4f#	8dL	8F#L
.	.	.	8cnJ	8EJ
4b	Je-	4.f#	4B	4D#
4g	-sum	.	8BL	8EL
.	.	8e	8cJ	8CJ
=12	=12	=12	=12	=12
4.f#	lass'	4e	8cL	8AAL
.	.	.	8AJ	8FF#J
.	.	4d#	8F#L	4BB
8f#	ich	.	16BL	.
.	.	.	16AJJ	.
2e;	nicht.	2B;	2G#;	2EE;
==|!	==|!	==|!	==|!	==|!
*-	*-	*-	*-	*-
!!!RWG: Key is interpreted using the Humdrum key tool.
!!!END: 1994/05/03
!!!EMD: Converted from MuseData to Humdrum Dec 19, 2000, by Andreas Kornstaedt using muse2kern.
!!!EED: Craig Stuart Sapp
!!!EEV: 2024/03/31
!!!ONB: Some non-unicode characters
